X: 11061
M: C
L: 1/8
K: F
V: 1 staves=3
!f!A>B |\
c2c>c f3e | edcB A2F>A |\
c2c>c B2A2 | G2G>G G2A>B | c2c>c f3e | edc=B cGAB |
cegg =Bdgg | c2c>c c2 :: !f!c2 |\
b3a gfed | c3B Acde | f2f>g a>f c'>a | g2g>g g2c2 |
(b3a) (ag)(gf) | (fe)(ed) (dc)(cB) |\
c2- c/d/c/B/ AcAc | B2- B/c/B/A/ GBGB |
c2- c/d/c/B/ AcAc | B2- B/c/B/A/ GBGB |\
V: 2
!f!F>G |\
E2E2 F2F2 | E2E>E E2 :: !f!c2 |\
g3f edcB | A3G F2z2 |\
(g3f) (fe)(ed) | (dc)(cB) (BA)(AG) |\
V: 3 clef=bass middle=d
!f!z2 |\
f2f>f f2a2 | b2c'2 f2z2 |\
f2z2 e2f2 | c2c'>c' c'>ba>g |\
f2f>f f2d2 | g2G2 c2z2 |
c2c2 G2G2 | c2c>c c2 :: !f!z2 |\
([e'4c4-] [c'2c2]) z2 | zcde f2z2 |\
f2z2 f2f>a | c'2c'>c' c'2z2 |
[d'6c6] [c'2c2] | [c'2c2][c'2c2][c'2c2][c'2c2] |\
f2f2 c2c2 | f2f>f f2 :: !p!z2 |\
fz fz fz fz | cz cz cz cz |\
f2z2 f2F>A | c2c>c c2z2 |\
fz fz fz fz | cz cz cz cz |\
f2f2 c2c2 | f2f>f f2 :|


